X:1
T:Title
L:1/8
M:4/4
I:linebreak $
K:D
V:1 treble nm="Voice"
V:1
"D" A2 A2 G2 | F3 d dcde | d2 A2 F2 A2 |"G" G3 d dcde | d2 B2 G2 B2 |"A" A3 e edef | e2 c2 B2 A2 |1 %7
"D" d2 cd fedc |"G" B2 :|2"D" d2 AA BAFA | d2 |: ed |"A" cecA EAce |"G" d2 B2 B2 BA | EBBB d2 Bd | %15
"D" fede"A" c2 ed |"A" cecA EAce |"G" d2 B2 B2 BA | EBBB d2 Bd |"D" fede A2 :| %20
